!!!ONB: MCCC : ILB0326_01 : Extracted Monophonic Melody
!!!COM: Beethoven, Ludwig van
!!!OPR: Violin Sonata No.5 in F major
!!!OMV: 1
!!!SCT: Op.24
!!!ODT: 1800///
**kern
*staff1
=1
*clefG2
*k[b-]
*F:
*M4/4
2aa
16gg
16ff
16ee
16ff
16gg
16ff
16ee
16dd
=2
2cc
16dd
16cc
16b
16cc
16dd
16cc
16b-
16a
=3
4.g
8f
8e
8f
8ff
8dd
=4
2cc
4b-
4r
=5
4.b-
16cc
16b-
8a
8b-
8bb-
8gg
=6
2ff
4ee
4r
=7
4.ee
16ff
16ee
8dd#
8ee
8ddd
8ccc
=8
2ccc
8bb-
8aa
8gg
8ff
=9
8ff#
8gg
8aa
8bb-
8b
8cc
8dd
8ee
=10
4ff
4r
2r
=11
8A
8c
8f
8c
8A
8c
8f
8c
=12
8A
8c
8f
8c
8A
8c
8f
8c
=13
8A
8d
8f
8d
8A
8d
8f
8d
=14
8B-
8d
8g
8d
8B-
8d
8g
8d
=15
8B-
8d
8g
8d
8B-
8d
8g
8d
=16
8B-
8e
8g
8e
8B-
8g
8e
8B-
=17
8G
8B-
8e
8B-
8G
8c
8e
8c
=18
8A
8c
8f
8c
8A
8d
8f
8d
=19
8A
8d
8f
8d
8f
8B
8d
8f
=20
8e
8g
8e
8c
8B-
8g
8e
8B-
=21
8A
8f
8A-
8f
8G
8B
8d
8f
=22
8e
8g
8e
8c
8B-
8g
8e
8B-
=23
8A
8f
8A-
8f
8G
8B
8d
8f
=24
4e
8r
8f
4e
8r
8f
=25
4e
4e
2r
=26
1r
=27
1r
=28
1r
=29
2dd[
8dd]
8cc#
8dd
8a
=30
4b
4r
2r
=31
2gg[
8gg]
8ff#
8gg
8dd
=32
4ee-
4r
2r
=33
8r
8c
8e-
8f#
8cc
8dd
8ee-
8cc
=34
4b
4r
2r
=35
1gg
=36
4.g
8f#
4.g
8f#
=37
8g
8f#
8g
8f#
8f
8e
8e-
8d
=38
4c
8r
16r
32r
64ee
64ff
2gg
=39
4.gg
16.gg
64gg[
64gg]
2gg
=40
2.gg
4ff
=41
4dd
4b
4g
4f
=42
4e
8r
16r
32r
64ee
64ff
2gg
=43
4.gg
16.gg
64gg[
64gg]
2gg
=44
2.gg
4ff
=45
4dd
4b
4g
4f
=46
8e-
16ee-
16ff
8gg
8gg
8gg
8gg
8gg
8gg
=47
2gg
4ff#
4r
=48
8r
16dd
16ee-
8ff
8ff
8ff
8ff
8ff
8ff
=49
2ff
4ee
4r
=50
8r
16cc
16dd
8ee-
8ee-
8ee-
8ee-
8ee-
8ee-
=51
4ee-
2dd
4ee-
=52
4.ee[
16ee]
16dd
2cc[
=53
4.cc]
32dd
32cc
32b
32cc
4.dd[
16dd]
16b
=54
4cc
4e
4g
4cc
=55
4ee
4gg
4ccc
4eee
=56
4fff
4r
2r
=57
1r
=58
4r
4e-
4g
4cc
=59
4ee-
4gg
4ccc
4eee-
=60
4fff
4r
2r
=61
1r
=62
1r
=63
8r
16ccc
16ddd
8eee-
8eee-
8eee-
8eee-
8eee-
8eee-
=64
4eee-
4ddd
2r
=65
8r
16bb
16ccc
8ddd
8ddd
8ddd
8ddd
8ddd
8ddd
=66
4ddd
4ccc
2r
=67
8r
16aa
16bb
8ccc
8ccc
8ccc
8ccc
8ccc
8ccc
=68
4ccc
2gg
4ee[
=69
8ee]
8cc
8g
8e
8f
8g
8f
8g
=70
8e
16c
16d
16e
16f
16g
16a
16b
16cc
16b
16a
16g
16f
16e
16d
=71
16c
16B
16c
16d
16e
16f
16g
16a
16b-
16a
16g
16f
16e
16d
16c
16B-
=72
8A
16B-
16c
16d
16e
16f
16g
16a
16b-
16a
16g
16f
16e
16d
16c
=73
8B
16c
16d
16e
16f
16g
16a
16b
16cc
16dd
16ee
16ff
16gg
16aa
16bb
=74
4ccc
4c
2cc
=75
4r
4e
2ee
=76
4r
4f
2ff[
=77
4ff]
4a-
4aa-
8gg
8ff
=78
4ee
4r
2r
=79
2cc[
8.cc]
16cc
24dd
24cc
24dd
24cc
24b
24cc
=80
4ff
2.ee
=81
2cc[
8.cc]
16cc
24dd
24cc
24dd
24cc
24b
24cc
=82
4aa
2.gg
=83
2cc[
8.cc]
16cc
24dd
24cc
24dd
24cc
24b
24cc
=84
2gg
2aa
=85
2bb-
2ee
=86
2aa
16gg
16ff
16ee
16ff
16gg
16ff
16ee
16dd
=87
2cc
16dd
16cc
16b
16cc
16dd
16cc
16b-
16a
=88
4.g
8f
8e
8f
8ff
8dd
=89
2cc
4b-
4r
=90
4.b-
16cc
16b-
8a
8b-
8bb-
8gg
=91
2ff
4ee
4r
=92
4.ee
16ff
16ee
8dd#
8ee
8ddd
8ccc
=93
2ccc
8bb-
8aa
8gg
8ff
=94
8ff#
8gg
8aa
8bb-
8b
8cc
8dd
8ee
=95
4ff
4r
2r
=96
8A
8c
8f
8c
8A
8c
8f
8c
=97
8A
8c
8f
8c
8A
8c
8f
8c
=98
8A
8d
8f
8d
8A
8d
8f
8d
=99
8B-
8d
8g
8d
8B-
8d
8g
8d
=100
8B-
8d
8g
8d
8B-
8d
8g
8d
=101
8B-
8e
8g
8e
8B-
8g
8e
8B-
=102
8G
8B-
8e
8B-
8G
8c
8e
8c
=103
8A
8c
8f
8c
8A
8d
8f
8d
=104
8A
8d
8f
8d
8f
8B
8d
8f
=105
8e
8g
8e
8c
8B-
8g
8e
8B-
=106
8A
8f
8A-
8f
8G
8B
8d
8f
=107
8e
8g
8e
8c
8B-
8g
8e
8B-
=108
8A
8f
8A-
8f
8G
8B
8d
8f
=109
4e
8r
8f
4e
8r
8f
=110
4e
4e
2r
=111
1r
=112
1r
=113
1r
=114
2dd[
8dd]
8cc#
8dd
8a
=115
4b
4r
2r
=116
2gg[
8gg]
8ff#
8gg
8dd
=117
4ee-
4r
2r
=118
8r
8c
8e-
8f#
8cc
8dd
8ee-
8cc
=119
4b
4r
2r
=120
1gg
=121
4.g
8f#
4.g
8f#
=122
8g
8f#
8g
8f#
8f
8e
8e-
8d
=123
4c
8r
16r
32r
64ee
64ff
2gg
=124
4.gg
16.gg
64gg[
64gg]
2gg
=125
2.gg
4ff
=126
4dd
4b
4g
4f
=127
4e
8r
16r
32r
64ee
64ff
2gg
=128
4.gg
16.gg
64gg[
64gg]
2gg
=129
2.gg
4ff
=130
4dd
4b
4g
4f
=131
8e-
16ee-
16ff
8gg
8gg
8gg
8gg
8gg
8gg
=132
2gg
4ff#
4r
=133
8r
16dd
16ee-
8ff
8ff
8ff
8ff
8ff
8ff
=134
2ff
4ee
4r
=135
8r
16cc
16dd
8ee-
8ee-
8ee-
8ee-
8ee-
8ee-
=136
4ee-
2dd
4ee-
=137
4.ee[
16ee]
16dd
2cc[
=138
4.cc]
32dd
32cc
32b
32cc
4.dd[
16dd]
16b
=139
4cc
4e
4g
4cc
=140
4ee
4gg
4ccc
4eee
=141
4fff
4r
2r
=142
1r
=143
4r
4e-
4g
4cc
=144
4ee-
4gg
4ccc
4eee-
=145
4fff
4r
2r
=146
1r
=147
1r
=148
8r
16ccc
16ddd
8eee-
8eee-
8eee-
8eee-
8eee-
8eee-
=149
4eee-
4ddd
2r
=150
8r
16bb
16ccc
8ddd
8ddd
8ddd
8ddd
8ddd
8ddd
=151
4ddd
4ccc
2r
=152
8r
16aa
16bb
8ccc
8ccc
8ccc
8ccc
8ccc
8ccc
=153
4ccc
2gg
4ee[
=154
8ee]
8cc
8g
8e
8f
8g
8f
8g
=155
8e
16c
16d
16e
16f
16g
16a
16b
16cc
16b
16a
16g
16f
16e
16d
=156
16c
16B
16c
16d
16e
16f
16g
16a
16b-
16a
16g
16f
16e
16d
16c
16B-
=157
8A
16B-
16c
16d
16e
16f
16g
16a
16b-
16a
16g
16f
16e
16d
16c
=158
8B
16c
16d
16e
16f
16g
16a
16b
16cc
16dd
16ee
16ff
16gg
16aa
16bb
=159
4ccc
4c
2cc
=160
4r
4e
2ee
=161
4r
4f
2ff[
=162
4ff]
4a-
4aa-
8gg
8ff
=163
4ee
4r
2r
=164
2cc[
8.cc]
16cc
24dd
24cc
24dd
24cc
24b
24cc
=165
4ff
2.ee
=166
2cc[
8.cc]
16cc
24dd
24cc
24dd
24cc
24b
24cc
=167
4aa
2.gg
=168
2cc[
8.cc]
16cc
24dd
24cc
24dd
24cc
24b
24cc
=169
2gg
2aa
=170
2bb-
2ee
=171
2aa
16eee
16ddd
16ccc#
16ddd
16eee
16ddd
16ccc#
16bb
=172
4aa
4r
16ee
16dd
16cc#
16dd
16ee
16dd
16cc#
16b
=173
4a
4r
16e
16d
16c#
16d
16e
16d
16c#
16B
=174
4A
4A
4A
4A
=175
4B-
4d
4f
4b-
=176
4dd
4ff
4bb-
4ddd
=177
4eee-
4r
2r
=178
1r
=179
4r
4c#
4f
4b-
=180
4cc#
4ff
4bb-
4ccc#
=181
4eee-
4r
2r
=182
1r
=183
12B-
12a
12b-
12cc#
12a
12b-
12cc#
12a
12b-
12cc#
12a
12b-
=184
12cc#
12a
12b-
12cc#
12a
12b-
12ee
12a
12b-
12ff
12a
12b-
=185
4gg
2ccc
4bb-
=186
4gg
4ee
4cc
4b-
=187
12a-
12ee
12ff
12aa-
12ee
12ff
12aa-
12ee
12ff
12aa-
12ee
12ff
=188
12aa-
12ee
12ff
12aa-
12ee
12ff
12bb
12ee
12ff
12ccc
12ee
12ff
=189
4ddd
2gg
4ff
=190
4dd
4b
4g
4f
=191
12e-
12b
12cc
12ee-
12b
12cc
12ee-
12b
12cc
12ee-
12b
12cc
=192
12ee-
12b
12cc
12ee-
12b
12cc
12ff#
12b
12cc
12gg
12b
12cc
=193
4aa
2ccc
4ccc
=194
4aa
4ff#
4dd
4cc
=195
12G
12f#
12g
12b-
12f#
12g
12b-
12f#
12g
12b-
12f#
12g
=196
12b-
12f#
12g
12b-
12f#
12g
12cc#
12f#
12g
12dd
12f#
12g
=197
4ee
2aa
4gg
=198
4d
2ff
4ff
=199
4B-
2ff
4ff
=200
4A-
2ff
4ff
=201
4ee
4r
2r
=202
16aa
16gg#
16aa
16gg#
16aa
16gg#
16aa
16gg#
16aa
16gg#
16aa
16gg#
16aa
16gg#
16aa
16gg#
=203
4aa
4r
2r
=204
16aa
16gg#
16aa
16gg#
16aa
16gg#
16aa
16gg#
16aa
16gg#
16aa
16gg#
16aa
16gg#
16aa
16gg#
=205
4aa
4r
2r
=206
16a
16g#
16a
16g#
16a
16g#
16a
16g#
16a
16g#
16a
16g#
16a
16g#
16a
16g#
=207
16a
16g#
16a
16g#
16a
16g#
16a
16g#
16a
16g#
16a
16g#
16a
16g#
16a
16g#
=208
16a
16g#
16a
16g#
16a
16g#
16a
16g#
16a
16g#
16a
16g#
16a
16g#
16a
16g#
=209
8a
8c
8f
8c
8A
8c
8f
8c
=210
8A
8c
8f
8c
8A
8c
8f
8c
=211
8A
8d
8f
8d
8A
8d
8f
8d
=212
8B-
8d
8g
8d
8B-
8d
8g
8d
=213
8B-
8d
8g
8d
8B-
8d
8g
8d
=214
8B-
8e
8g
8e
8B-
8b-
8g
8e
=215
8B-
8e
8g
8e
8c
8e
8g
8e
=216
8c
8f
8a
8f
8c
8f
8A
8a
=217
8d
8dd
8b-
8dd
8g
8b-
8G
8B-
=218
16A
16c
16B-
16A
16B-
16c
16d
16e
16f
16g
16a
16b-
20cc
20dd
20ee
20ff
20gg
=219
2aa
16gg
16ff
16ee
16ff
16gg
16ff
16ee
16dd
=220
2cc
16dd
16cc
16b
16cc
16dd
16cc
16b-
16a
=221
4.g
8f
8e
8f
8ff
8dd
=222
2cc
4b
4r
=223
4.b-
16cc
16b-
8a
8b-
8bb-
8gg
=224
2ff
4ee
4r
=225
4.ee-
16ff
16ee-
8dd
8ee-
8eee-
8ccc
=226
2bb-
4aa
4aa[
=227
8aa]
8bb-
8bb-
8bb-
8bb-
8aa-
8aa-
8aa-
=228
8aa-
8gg
8gg
8gg
8gg
8ff
8ff
8ff
=229
8ee
8g
8e
8c
8B-
8g
8e
8B-
=230
8A-
8a-
8f
8c
8A-
8f
8A-
8f
=231
8e
8g
8e
8c
8B-
8g
8e
8B-
=232
8A-
8a-
8f
8c
8A-
8f
8A-
8f
=233
4e
8r
8f
4e
8r
8f
=234
4e
4e
2r
=235
1r
=236
1r
=237
1r
=238
2cc[
8cc]
8b
8cc
8g
=239
4a-
4r
2r
=240
2ff[
8ff]
8ee
8ff
8cc
=241
4cc#
4r
2r
=242
8r
8f
8a-
8b
8ff
8gg
8aa-
8ff
=243
4ee
4r
2r
=244
1ccc
=245
4.cc
8b
4.cc
8b
=246
8cc
8b
8cc
8b
8b-
8a
8a-
8g
=247
4f
8r
16r
32r
64aa
64bb-
2ccc
=248
4.ccc
16.ccc
64ccc[
64ccc]
2ccc
=249
2.ccc
4bb-
=250
4gg
4ee
4cc
4b-
=251
4a
8r
16r
32r
64aa
64bb-
2ccc
=252
4.ccc
16.ccc
64ccc[
64ccc]
2ccc
=253
2.ccc
4bb-
=254
4gg
4ee
4cc
4b-
=255
8a-
16aa-
16bb-
8ccc
8ccc
8ccc
8ccc
8ccc
8ccc
=256
2ccc
4bb
4r
=257
8r
16gg
16aa-
8bb-
8bb-
8bb-
8bb-
8bb-
8bb-
=258
2bb-
4aa
4r
=259
8r
16ff
16gg
8aa-
8aa-
8aa-
8aa-
8aa-
8aa-
=260
4aa-
2gg
4aa-
=261
4.aa[
16aa]
16gg
2ff[
=262
4.ff]
32gg
32ff
32ee
32ff
4.gg[
16gg]
16ee
=263
4ff
4A
4c
4f
=264
4a
4cc
4ff
4aa
=265
4bb-
4r
2r
=266
1r
=267
4r
4A-
4c
4f
=268
4a-
4cc
4ff
4aa-
=269
4bb-
4r
2r
=270
1r
=271
1r
=272
8r
16f
16g
8a-
8a-
8a-
8a-
8a-
8a-
=273
4a-
4g
2r
=274
8r
16ee
16ff
8gg
8gg
8gg
8gg
8gg
8gg
=275
4gg
4ff
2r
=276
8r
16ddd
16eee
8fff
8fff
8fff
8fff
8fff
8fff
=277
4fff
2ccc
4aa[
=278
8aa]
8ff
8cc
8a
8b-
8g
8e
8B-
=279
8A
16f
16g
16a
16b-
16cc
16dd
16ee
16ff
16ee
16dd
16cc
16b-
16a
16g
=280
16f
16e
16f
16g
16a
16b-
16cc
16dd
16ee-
16dd
16cc
16b-
16a
16g
16f
16e-
=281
8d
16e-
16f
16g
16a
16b-
16cc
16dd
16ee-
16dd
16cc
16b-
16a
16g
16f
=282
16e
16f
16g
16a
16b-
16a
16g
16f
16e
16f
16g
16a
16b-
16cc
16dd
16ee
=283
4ff
4f
2ff
=284
4r
4a
2aa
=285
4r
4b-
2bb-[
=286
4bb-]
4cc#
4ccc#
8ccc
8bb-
=287
4aa
4r
2r
=288
2ff[
8.ff]
16ff
24gg
24ff
24gg
24ff
24ee
24ff
=289
4bb-
2.aa
=290
2ff[
8.ff]
16ff
24gg
24ff
24gg
24ff
24ee
24ff
=291
4ddd
2.ccc
=292
2ff[
8.ff]
16ff
24gg
24ff
24gg
24ff
24ee
24ff
=293
2ccc
2ddd
=294
2eee-
2aa
=295
2ddd
16aa
16gg
16ff#
16gg
16aa
16gg
16ff#
16ee
=296
4dd
4r
2r
=297
2r
16a
16g
16f#
16g
16a
16g
16f#
16e
=298
4d
4d
4d
4d
=299
2e-
16b-
16a-
16g
16a-
16b-
16a-
16g
16f
=300
4e
4e
4e
4e
=301
4f
16cc
16b-
16a
16b-
16cc
16b-
16a
16g
4f#
=302
4g
16dd
16cc
16b-
16cc
16dd
16cc
16b-
16a
4g#
=303
4.a
8b-
4.b
8cc
=304
8cc#
8dd
8ee-
8ee
8ff
8ff#
8gg
8aa-
=305
4aa
4r
2r
=306
1r
=307
8r
8d
8e
8f#
8g
8a
8b-
8b
=308
8cc
8c
8d
8e
8f
8g
8a-
8a
=309
4b-
8dd
8cc
8b-
8a
8g
8f
=310
4e
8cc
8b-
8a
8g
8f
8e-
=311
8d
8dd
4gg
8ff
8b
8ee
8dd[
=312
8dd]
8g
8cc
8b-
8b
8e
8a
8d
=313
4g
4r
4f
4r
=314
4f
4r
4e
4r
=315
4f
4r
2r
=316
24bb-
24r
24gg
32r
16.ee
24b-
24r
24g
32r
16.e
24B-
24r
24e
32r
16.e
24e
24r
24e
32r
16.e
=317
4f
4r
2r
=318
2bb-
16ccc
16bb-
16aa
16bb-
16ccc
16bb-
16aa
16gg
=319
4ff
4r
2r
=320
2bb-
16ccc
16bb-
16aa
16bb-
16ccc
16bb-
16aa
16gg
=321
4ff
4r
2r
=322
2bb-
16ccc
16bb-
16aa
16bb-
16ccc
16bb-
16aa
16gg
=323
4ff
4gg
2aa[
=324
4aa]
8bb-
8aa
4gg
4ccc
=325
24ff
24r
24c
32r
16.f
12A
12c
12f
12A
12c
12f
12A
12c
12f
=326
12B-
12g
12e
12B-
12g
12e
12B-
12g
12e
12B-
12g
12e
=327
12A
12c
12f
12A
12c
12f
12A
12c
12f
12A
12c
12f
=328
12B-
12g
12e
12B-
12g
12e
12B-
12g
12e
12B-
12g
12e
=329
4A
4r
8r
16ddd
16ccc
16bb-
16aa
16gg
16ff
=330
16ee
16ff
16gg
16ff
16ee
16dd
16cc
16b-
16a
16b-
16cc
16dd
16ee
16ff
16gg
16aa
=331
4bb-
4r
4ccc
4r
=332
4a
4r
2r
==
*-
